X: 41795
T: Verandah Valse
R: waltz
M: 3/4
K: Dmajor
E2|:"A"A3 B cd|e2 d2 c2|"E"B2 d2 B2|"A"c2 A2 E2|
A3 B cd|e2 d2 c2|"G"B2 A2 G2|B3=c B2|
"A" A3 B cd|e2 d2 c2|"E"B2 d2 B2|"A"c2 A2 E2|
A3 B AG|E2 G2 A2|"G"B=c B2 G2|"A"A6:|
|:"A"A3 B cd|e2 f2 g2|"D"f2 e2 d2|"A"e2 c2 A2|
c3 d ef|e2 d2 c2|"G"B2 A2 G2|B3=c B2|
"A" A3 B cd|e2 f2 g2|"D"a2 g2 e2|"A"dc A4|A3 B AG|
E2 G2 A2|1 "G" B=c B2 G2|"A"A6:|2 "G" dc A2 G2|"A"A6||

